public/home/cloud-3.svg

<svg width="421" height="110" viewBox="0 0 421 110" fill="none" xmlns="http://www.w3.org/2000/svg">
<g filter="url(#filter0_ddi_30_3)">
<path d="M374.511 71.9461L26 69.0459L165.297 51.527C180.95 49.5583 196.073 44.5721 209.828 36.8447L235.846 22.2279C260.804 8.20641 292.031 12.4078 312.396 32.5272L313.945 34.058C317.626 37.6947 321.848 40.7403 326.46 43.0867C340.072 50.0123 356.817 49.5486 371.751 52.7505C382.207 54.9923 391.441 60.0094 393.554 64.551C396.912 71.77 382.473 72.0124 374.511 71.9461Z" fill="url(#paint0_linear_30_3)" shape-rendering="crispEdges"/>
<path d="M236.336 23.0996C260.905 9.29666 291.646 13.4323 311.693 33.2383L313.242 34.7695C316.997 38.4786 321.302 41.5844 326.006 43.9775C332.96 47.5156 340.68 49.1496 348.463 50.3037C356.305 51.4667 364.111 52.1355 371.541 53.7285C376.685 54.8315 381.517 56.6155 385.305 58.668C389.144 60.7483 391.734 63.0082 392.647 64.9727C393.01 65.7522 393.093 66.3539 393.034 66.8174C392.976 67.2701 392.772 67.679 392.397 68.0654C391.603 68.8846 390.106 69.5379 388.055 70.0059C384.001 70.9305 378.516 70.9795 374.52 70.9463L40.9746 68.1699L165.422 52.5195C181.204 50.5347 196.451 45.5075 210.318 37.7168L236.336 23.0996Z" stroke="url(#paint1_linear_30_3)" stroke-width="2" shape-rendering="crispEdges"/>
</g>
<defs>
<filter id="filter0_ddi_30_3" x="0" y="0" width="420.052" height="109.953" filterUnits="userSpaceOnUse" color-interpolation-filters="sRGB">
<feFlood flood-opacity="0" result="BackgroundImageFix"/>
<feColorMatrix in="SourceAlpha" type="matrix" values="0 0 0 0 0 0 0 0 0 0 0 0 0 0 0 0 0 0 127 0" result="hardAlpha"/>
<feOffset dy="4"/>
<feGaussianBlur stdDeviation="2"/>
<feComposite in2="hardAlpha" operator="out"/>
<feColorMatrix type="matrix" values="0 0 0 0 0 0 0 0 0 0 0 0 0 0 0 0 0 0 0.25 0"/>
<feBlend mode="normal" in2="BackgroundImageFix" result="effect1_dropShadow_30_3"/>
<feColorMatrix in="SourceAlpha" type="matrix" values="0 0 0 0 0 0 0 0 0 0 0 0 0 0 0 0 0 0 127 0" result="hardAlpha"/>
<feOffset dy="12"/>
<feGaussianBlur stdDeviation="13"/>
<feComposite in2="hardAlpha" operator="out"/>
<feColorMatrix type="matrix" values="0 0 0 0 0 0 0 0 0 0 0 0 0 0 0 0 0 0 0.25 0"/>
<feBlend mode="normal" in2="effect1_dropShadow_30_3" result="effect2_dropShadow_30_3"/>
<feBlend mode="normal" in="SourceGraphic" in2="effect2_dropShadow_30_3" result="shape"/>
<feColorMatrix in="SourceAlpha" type="matrix" values="0 0 0 0 0 0 0 0 0 0 0 0 0 0 0 0 0 0 127 0" result="hardAlpha"/>
<feOffset dx="9" dy="10"/>
<feGaussianBlur stdDeviation="9.4"/>
<feComposite in2="hardAlpha" operator="arithmetic" k2="-1" k3="1"/>
<feColorMatrix type="matrix" values="0 0 0 0 1 0 0 0 0 1 0 0 0 0 1 0 0 0 0.24 0"/>
<feBlend mode="normal" in2="shape" result="effect3_innerShadow_30_3"/>
</filter>
<linearGradient id="paint0_linear_30_3" x1="108.414" y1="62.5569" x2="371.868" y2="48.3282" gradientUnits="userSpaceOnUse">
<stop stop-color="#D9D9D9" stop-opacity="0.8"/>
<stop offset="1" stop-color="#737373" stop-opacity="0.6"/>
</linearGradient>
<linearGradient id="paint1_linear_30_3" x1="151.012" y1="7.01325" x2="157.657" y2="78.0396" gradientUnits="userSpaceOnUse">
<stop stop-color="white" stop-opacity="0.8"/>
<stop offset="1" stop-color="#999999" stop-opacity="0.09"/>
</linearGradient>
</defs>
</svg>

<svg xmlns="http://www.w3.org/2000/svg" width="421" height="110" fill="none" viewBox="0 0 421 110"><g filter="url(#a)" shape-rendering="crispEdges"><path fill="url(#b)" d="M374.511 71.946 26 69.046l139.297-17.519a122 122 0 0 0 44.531-14.682l26.018-14.617c24.958-14.022 56.185-9.82 76.55 10.3l1.549 1.53a50.2 50.2 0 0 0 12.515 9.029c13.612 6.925 30.357 6.462 45.291 9.664 10.456 2.241 19.69 7.258 21.803 11.8 3.358 7.219-11.081 7.461-19.043 7.395"/><path stroke="url(#c)" stroke-width="2" d="M236.336 23.1c24.569-13.803 55.31-9.668 75.357 10.138l1.549 1.532a51.2 51.2 0 0 0 12.764 9.207c6.954 3.539 14.674 5.173 22.457 6.327 7.842 1.163 15.648 1.831 23.078 3.424 5.144 1.103 9.976 2.887 13.764 4.94 3.839 2.08 6.429 4.34 7.342 6.305.363.78.446 1.38.387 1.844-.058.453-.262.862-.637 1.248-.794.82-2.291 1.473-4.342 1.94-4.054.925-9.539.975-13.535.941L40.975 68.17l124.447-15.65a123 123 0 0 0 44.896-14.803z"/></g><defs><linearGradient id="b" x1="108.414" x2="371.868" y1="62.557" y2="48.328" gradientUnits="userSpaceOnUse"><stop stop-color="#d9d9d9" stop-opacity=".8"/><stop offset="1" stop-color="#737373" stop-opacity=".6"/></linearGradient><linearGradient id="c" x1="151.012" x2="157.657" y1="7.013" y2="78.04" gradientUnits="userSpaceOnUse"><stop stop-color="#fff" stop-opacity=".8"/><stop offset="1" stop-color="#999" stop-opacity=".09"/></linearGradient><filter id="a" width="420.052" height="109.953" x="0" y="0" color-interpolation-filters="sRGB" filterUnits="userSpaceOnUse"><feFlood flood-opacity="0" result="BackgroundImageFix"/><feColorMatrix in="SourceAlpha" result="hardAlpha" values="0 0 0 0 0 0 0 0 0 0 0 0 0 0 0 0 0 0 127 0"/><feOffset dy="4"/><feGaussianBlur stdDeviation="2"/><feComposite in2="hardAlpha" operator="out"/><feColorMatrix values="0 0 0 0 0 0 0 0 0 0 0 0 0 0 0 0 0 0 0.25 0"/><feBlend in2="BackgroundImageFix" result="effect1_dropShadow_30_3"/><feColorMatrix in="SourceAlpha" result="hardAlpha" values="0 0 0 0 0 0 0 0 0 0 0 0 0 0 0 0 0 0 127 0"/><feOffset dy="12"/><feGaussianBlur stdDeviation="13"/><feComposite in2="hardAlpha" operator="out"/><feColorMatrix values="0 0 0 0 0 0 0 0 0 0 0 0 0 0 0 0 0 0 0.25 0"/><feBlend in2="effect1_dropShadow_30_3" result="effect2_dropShadow_30_3"/><feBlend in="SourceGraphic" in2="effect2_dropShadow_30_3" result="shape"/><feColorMatrix in="SourceAlpha" result="hardAlpha" values="0 0 0 0 0 0 0 0 0 0 0 0 0 0 0 0 0 0 127 0"/><feOffset dx="9" dy="10"/><feGaussianBlur stdDeviation="9.4"/><feComposite in2="hardAlpha" k2="-1" k3="1" operator="arithmetic"/><feColorMatrix values="0 0 0 0 1 0 0 0 0 1 0 0 0 0 1 0 0 0 0.24 0"/><feBlend in2="shape" result="effect3_innerShadow_30_3"/></filter></defs></svg>
